public/images/instagram.svg

<svg fill="none" height="18" viewBox="0 0 18 18" width="18" xmlns="http://www.w3.org/2000/svg"><path d="m9.01758 4.93945c-2.25 0-4.04297 1.82813-4.04297 4.04297 0 2.24998 1.79297 4.04298 4.04297 4.04298 2.21482 0 4.04292-1.793 4.04292-4.04298 0-2.21484-1.8281-4.04297-4.04292-4.04297zm0 6.67965c-1.44141 0-2.63672-1.1601-2.63672-2.63668 0-1.4414 1.16016-2.60156 2.63672-2.60156 1.44142 0 2.60152 1.16016 2.60152 2.60156 0 1.47658-1.1601 2.63668-2.60152 2.63668zm5.13282-6.82027c0 .52734-.4219.94922-.9492.94922-.5274 0-.9492-.42188-.9492-.94922 0-.52735.4218-.94922.9492-.94922.5273 0 .9492.42187.9492.94922zm2.6719.94922c-.0703-1.26563-.3516-2.39063-1.2657-3.30469-.914-.91406-2.039-1.19531-3.3046-1.26563-1.3008-.07031-5.20317-.07031-6.50395 0-1.26563.07032-2.35547.35157-3.30469 1.26563-.91406.91406-1.19531 2.03906-1.26563 3.30469-.07031 1.30078-.07031 5.20315 0 6.50395.07032 1.2656.35157 2.3554 1.26563 3.3046.94922.9141 2.03906 1.1954 3.30469 1.2657 1.30078.0703 5.20315.0703 6.50395 0 1.2656-.0703 2.3906-.3516 3.3046-1.2657.9141-.9492 1.1954-2.039 1.2657-3.3046.0703-1.3008.0703-5.20317 0-6.50395zm-1.6875 7.87495c-.2461.7032-.8086 1.2305-1.4766 1.5118-1.0547.4218-3.5156.3164-4.64062.3164-1.16016 0-3.6211.1054-4.64063-.3164-.70312-.2813-1.23047-.8086-1.51172-1.5118-.42187-1.0195-.3164-3.4804-.3164-4.64058 0-1.125-.10547-3.58594.3164-4.64062.28125-.66797.8086-1.19532 1.51172-1.47657 1.01953-.42187 3.48047-.3164 4.64063-.3164 1.12502 0 3.58592-.10547 4.64062.3164.668.2461 1.1953.8086 1.4766 1.47657.4218 1.05468.3164 3.51562.3164 4.64062 0 1.16018.1054 3.62108-.3164 4.64058z" fill="#a37a56"/></svg>

<svg width="18" height="18" viewBox="0 0 18 18" fill="none" xmlns="http://www.w3.org/2000/svg">
<path d="M9.01758 4.93945C6.76758 4.93945 4.97461 6.76758 4.97461 8.98242C4.97461 11.2324 6.76758 13.0254 9.01758 13.0254C11.2324 13.0254 13.0605 11.2324 13.0605 8.98242C13.0605 6.76758 11.2324 4.93945 9.01758 4.93945ZM9.01758 11.6191C7.57617 11.6191 6.38086 10.459 6.38086 8.98242C6.38086 7.54102 7.54102 6.38086 9.01758 6.38086C10.459 6.38086 11.6191 7.54102 11.6191 8.98242C11.6191 10.459 10.459 11.6191 9.01758 11.6191ZM14.1504 4.79883C14.1504 5.32617 13.7285 5.74805 13.2012 5.74805C12.6738 5.74805 12.252 5.32617 12.252 4.79883C12.252 4.27148 12.6738 3.84961 13.2012 3.84961C13.7285 3.84961 14.1504 4.27148 14.1504 4.79883ZM16.8223 5.74805C16.752 4.48242 16.4707 3.35742 15.5566 2.44336C14.6426 1.5293 13.5176 1.24805 12.252 1.17773C10.9512 1.10742 7.04883 1.10742 5.74805 1.17773C4.48242 1.24805 3.39258 1.5293 2.44336 2.44336C1.5293 3.35742 1.24805 4.48242 1.17773 5.74805C1.10742 7.04883 1.10742 10.9512 1.17773 12.252C1.24805 13.5176 1.5293 14.6074 2.44336 15.5566C3.39258 16.4707 4.48242 16.752 5.74805 16.8223C7.04883 16.8926 10.9512 16.8926 12.252 16.8223C13.5176 16.752 14.6426 16.4707 15.5566 15.5566C16.4707 14.6074 16.752 13.5176 16.8223 12.252C16.8926 10.9512 16.8926 7.04883 16.8223 5.74805ZM15.1348 13.623C14.8887 14.3262 14.3262 14.8535 13.6582 15.1348C12.6035 15.5566 10.1426 15.4512 9.01758 15.4512C7.85742 15.4512 5.39648 15.5566 4.37695 15.1348C3.67383 14.8535 3.14648 14.3262 2.86523 13.623C2.44336 12.6035 2.54883 10.1426 2.54883 8.98242C2.54883 7.85742 2.44336 5.39648 2.86523 4.3418C3.14648 3.67383 3.67383 3.14648 4.37695 2.86523C5.39648 2.44336 7.85742 2.54883 9.01758 2.54883C10.1426 2.54883 12.6035 2.44336 13.6582 2.86523C14.3262 3.11133 14.8535 3.67383 15.1348 4.3418C15.5566 5.39648 15.4512 7.85742 15.4512 8.98242C15.4512 10.1426 15.5566 12.6035 15.1348 13.623Z" fill="#A37A56"/>
</svg>
